X:990
T:Castleconnell Lasses
O:england
B:Joyce, P. W.; "Old Irish Folk Music and Songs"
R:reel
L:1/8
M:C
K:D
d2 fd a2 fd|d2 fd ecAc|d2 fd adfd|ecAc cB B2|
d2 fd adfd|d2 fd ecAc|defg agaf|ecAc cB B2:|
fBdB f2 dB|ABcd ecAc|f2 dB fBdB|ecAc cB B2|
fBdB fBdB|ABcd ecAc|dcdB ceaf|ecAc cB B2:|


